public/svg/profiles/github.svg

<?xml version="1.0" encoding="UTF-8" standalone="no"?>
<svg width="50px" height="50px" viewBox="0 0 50 50" version="1.1" xmlns="http://www.w3.org/2000/svg" xmlns:xlink="http://www.w3.org/1999/xlink">
    <defs></defs>
    <g stroke="none" stroke-width="1" fill="none" fill-rule="evenodd">
        <g>
            <g>
                <circle id="Oval" fill="#1A1919" cx="25" cy="25" r="25"></circle>
                <path d="M14.4736842,27.3618421 C14.4736842,25.2960526 15.0473684,23.5684211 16.1947368,22.1815789 C15.9662498,21.4625361 15.8508389,20.7123653 15.8526316,19.9578947 C15.8526316,18.9447368 16.0684211,17.9947368 16.4973684,17.1052632 C17.4092105,17.1052632 18.2105263,17.2763158 18.9013158,17.6223684 C19.5934211,17.9671053 20.3907895,18.5039474 21.2934211,19.2381579 C22.5728365,18.9287198 23.8850264,18.7754101 25.2013158,18.7815789 C26.4513158,18.7815789 27.6315789,18.9210526 28.7447368,19.2 C29.6302632,18.4855263 30.4197368,17.9578947 31.1105263,17.6184211 C31.8026316,17.2763158 32.6,17.1078947 33.5026316,17.1078947 C33.9315789,17.9973684 34.1473684,18.95 34.1473684,19.9605263 C34.1491561,20.7063819 34.0337125,21.4478845 33.8052632,22.1578947 C34.9526316,23.5526316 35.5263158,25.2894737 35.5263158,27.3644737 C35.5263158,29.1710526 35.2684211,30.6144737 34.7539474,31.6960526 C34.4342105,32.3671053 33.9907895,32.9460526 33.4197368,33.4355263 C32.8486842,33.9223684 32.2539474,34.2973684 31.6342105,34.5592105 C31.0157895,34.8223684 30.2973684,35.0289474 29.4842105,35.1815789 C28.6684211,35.3342105 27.9447368,35.4289474 27.3131579,35.4684211 C26.6815789,35.5078947 25.9789474,35.5263158 25.2026316,35.5263158 C23.9784398,35.5399322 22.7546948,35.4722394 21.5394737,35.3236842 C20.8859993,35.2513122 20.2403952,35.1200775 19.6105263,34.9315789 C19.0176153,34.7484948 18.438515,34.5233624 17.8776316,34.2578947 C17.3113496,33.9925938 16.7936275,33.6341024 16.3460526,33.1973684 C15.8996401,32.7622772 15.5315356,32.2535185 15.2578947,31.6934211 C14.7368421,30.6184211 14.4736842,29.1763158 14.4736842,27.3618421 L14.4736842,27.3618421 Z M17.3078947,29.6644737 C17.3078947,30.4328947 17.4421053,31.1026316 17.7131579,31.6736842 C17.9828947,32.2447368 18.3236842,32.6934211 18.7368421,33.0210526 C19.15,33.3473684 19.6657895,33.6092105 20.2802632,33.8052632 C20.8960526,34.0026316 21.4868421,34.1302632 22.0526316,34.1921053 C22.6184211,34.2526316 23.2460526,34.2842105 23.9368421,34.2842105 L26.0631579,34.2842105 C26.7539474,34.2842105 27.3828947,34.2526316 27.9473684,34.1921053 C28.5131579,34.1302632 29.1052632,34.0026316 29.7197368,33.8052632 C30.3342105,33.6078947 30.8513158,33.3473684 31.2631579,33.0210526 C31.6763158,32.6921053 32.0171053,32.2447368 32.2868421,31.6736842 C32.5578947,31.1026316 32.6921053,30.4328947 32.6921053,29.6644737 C32.6921053,28.6184211 32.4026316,27.7302632 31.8197368,26.9960526 C31.2368421,26.2631579 30.4486842,25.8973684 29.4539474,25.8973684 C29.1078947,25.8973684 28.2855263,25.9894737 26.9868421,26.1736842 C26.3293468,26.2733881 25.6649923,26.3209048 25,26.3157895 C24.3349381,26.320034 23.6705833,26.2716373 23.0131579,26.1710526 C21.7315789,25.9868421 20.9078947,25.8973684 20.5460526,25.8973684 C19.5513158,25.8973684 18.7631579,26.2631579 18.1802632,26.9960526 C17.5986842,27.7289474 17.3078947,28.6184211 17.3078947,29.6644737 L17.3078947,29.6644737 Z M19.3315789,29.6644737 C19.3315789,29.3157895 19.3842105,28.9592105 19.4894737,28.5921053 C19.5947368,28.2263158 19.7763158,27.8947368 20.0342105,27.5973684 C20.2907895,27.3013158 20.5973684,27.1526316 20.9513158,27.1526316 C21.3065789,27.1526316 21.6118421,27.3013158 21.8684211,27.5973684 C22.1263158,27.8947368 22.3078947,28.2263158 22.4131579,28.5921053 C22.5184211,28.9605263 22.5710526,29.3157895 22.5710526,29.6644737 C22.5710526,30.0144737 22.5184211,30.3710526 22.4131579,30.7381579 C22.3078947,31.1065789 22.1263158,31.4355263 21.8684211,31.7328947 C21.6118421,32.0302632 21.3052632,32.1802632 20.9513158,32.1802632 C20.5960526,32.1802632 20.2907895,32.0302632 20.0342105,31.7328947 C19.7818135,31.4458237 19.5958192,31.1066312 19.4894737,30.7394737 C19.3867752,30.3911992 19.333622,30.0302002 19.3315789,29.6671053 L19.3315789,29.6644737 Z M27.4289474,29.6644737 C27.4289474,29.3157895 27.4815789,28.9592105 27.5868421,28.5921053 C27.6921053,28.2263158 27.8736842,27.8947368 28.1315789,27.5973684 C28.3881579,27.3013158 28.6947368,27.1526316 29.0486842,27.1526316 C29.4039474,27.1526316 29.7092105,27.3013158 29.9657895,27.5973684 C30.2236842,27.8947368 30.4039474,28.2263158 30.5092105,28.5921053 C30.6144737,28.9605263 30.6671053,29.3157895 30.6671053,29.6644737 C30.6671053,30.0144737 30.6144737,30.3710526 30.5092105,30.7381579 C30.4039474,31.1065789 30.2236842,31.4355263 29.9657895,31.7328947 C29.7092105,32.0302632 29.4026316,32.1802632 29.0486842,32.1802632 C28.6934211,32.1802632 28.3881579,32.0302632 28.1315789,31.7328947 C27.8791819,31.4458237 27.6931876,31.1066312 27.5868421,30.7394737 C27.4841436,30.3911992 27.4309904,30.0302002 27.4289474,29.6671053 L27.4289474,29.6644737 Z" id="Shape" fill="#FFFFFF"></path>
            </g>
        </g>
    </g>
</svg>

<svg width="50" height="50" viewBox="0 0 50 50" xmlns="http://www.w3.org/2000/svg"><g fill="none" fill-rule="evenodd"><circle fill="#1A1919" cx="25" cy="25" r="25"/><path d="M14.474 27.362c0-2.066.573-3.794 1.72-5.18-.228-.72-.343-1.47-.34-2.224 0-1.013.214-1.963.643-2.853.912 0 1.714.17 2.404.517.693.345 1.49.882 2.393 1.616 1.28-.31 2.592-.463 3.908-.456 1.25 0 2.432.14 3.545.418.885-.714 1.675-1.242 2.366-1.582.693-.342 1.49-.51 2.393-.51.43.89.644 1.842.644 2.853.002.746-.113 1.488-.342 2.198 1.148 1.395 1.72 3.13 1.72 5.206 0 1.807-.257 3.25-.77 4.332-.32.67-.764 1.25-1.335 1.74-.57.486-1.166.86-1.786 1.123-.618.262-1.337.47-2.15.622-.816.152-1.54.247-2.17.286-.632.04-1.335.058-2.11.058-1.226.014-2.45-.054-3.665-.202-.654-.073-1.3-.204-1.93-.392-.592-.184-1.17-.41-1.732-.674-.567-.265-1.084-.624-1.532-1.06-.446-.436-.814-.944-1.088-1.505-.52-1.075-.784-2.517-.784-4.33zm2.834 2.302c0 .77.134 1.44.405 2.01.27.57.61 1.02 1.024 1.347.413.327.93.59 1.543.785.616.198 1.207.325 1.773.387.565.06 1.193.092 1.884.092h2.126c.69 0 1.32-.03 1.884-.092.566-.062 1.158-.19 1.773-.387.614-.197 1.13-.458 1.543-.784.413-.328.754-.775 1.024-1.346.27-.57.405-1.24.405-2.01 0-1.046-.29-1.934-.872-2.668-.583-.733-1.37-1.1-2.366-1.1-.346 0-1.168.093-2.467.278-.658.1-1.322.147-1.987.142-.665.004-1.33-.044-1.987-.145-1.28-.183-2.105-.273-2.467-.273-.995 0-1.783.366-2.366 1.1-.58.732-.872 1.62-.872 2.667zm2.024 0c0-.348.052-.705.157-1.072.105-.366.286-.697.544-.995.257-.296.563-.444.917-.444.357 0 .662.148.918.444.258.298.44.63.545.995.105.37.158.724.158 1.072 0 .35-.052.707-.157 1.074-.105.37-.287.698-.545.995-.256.297-.563.447-.917.447-.354 0-.66-.15-.916-.447-.252-.287-.438-.626-.545-.994-.103-.35-.156-.71-.158-1.073v-.003zm8.097 0c0-.348.052-.705.157-1.072.105-.366.287-.697.545-.995.256-.296.563-.444.917-.444.354 0 .66.148.916.444.258.298.438.63.543.995.104.37.157.724.157 1.072 0 .35-.053.707-.158 1.074-.106.37-.286.698-.544.995-.257.297-.563.447-.917.447-.357 0-.662-.15-.918-.447-.253-.287-.44-.626-.545-.994-.103-.35-.156-.71-.158-1.073v-.003z" fill="#FFF"/></g></svg>
